omega/web/assets/images/sports/quasar-bask.svg

<svg enable-background="new 0 0 512 512" fill="#830001" height="512" viewBox="0 0 512 512" width="512" xmlns="http://www.w3.org/2000/svg"><path d="m256 46.082c-115.935 0-209.918 93.984-209.918 209.918 0 115.936 93.984 209.918 209.918 209.918 115.936 0 209.918-93.982 209.918-209.918 0-115.934-93.982-209.918-209.918-209.918m176.526 253.791c-78.094 4.232-138.946-.778-180.931-14.908-20.681-6.958-36.73-16.129-48.027-27.402 35.688-26.975 70.15-48.14 98.58-63.772 44.566-24.508 81.514-39.58 99.715-46.43 22.614 30.314 36.004 67.914 36.004 108.64 0 15.128-1.859 29.82-5.341 43.872m-43.355-167.714c-20.08 7.797-54.405 22.381-95.619 45.017-29.225 16.051-64.673 37.804-101.398 65.578-2.035-3.564-3.713-7.28-5.019-11.153-18.998-56.352 40.007-131.917 65.032-157.419 1.276-.026 2.551-.049 3.833-.049 52.595 0 99.965 22.334 133.171 58.026m-164.572-55.316c-31.19 36.979-74.09 104.657-55.186 160.732 1.989 5.901 4.596 11.485 7.81 16.756-9.167 7.29-18.369 14.958-27.536 23.001-34.489-50.453-36.107-89.812-37.455-122.623-.133-3.241-.265-6.417-.421-9.544 27.189-35.314 67.051-60.362 112.788-68.322m-113.185 204.617c-13.91-14.104-27.415-22.816-37.249-27.954.392-29.168 7.643-56.677 20.225-80.986 1.841 28.473 7.134 62.417 31.488 102.633 2.997 4.948 6.242 9.908 9.715 14.882-3.095 2.866-6.183 5.765-9.258 8.719-4.661-6.155-9.636-11.934-14.921-17.294m1.44 30.624c-7.09 7.211-14.095 14.662-20.973 22.364-8.663-18.091-14.417-37.84-16.67-58.638 10.953 7.17 24.673 18.606 37.643 36.274m-11.406 39.801c7.155-8.192 14.459-16.111 21.874-23.751 11.08 19.162 20.746 43.845 26.428 75.473-19.278-13.901-35.719-31.486-48.302-51.722m69.219 64.747c-3.772-29.25-10.929-55.731-21.358-78.873-3.691-8.192-7.793-15.977-12.284-23.324 3.255-3.159 6.524-6.269 9.805-9.325 32.655 41.268 81.802 83.636 148.879 128.397-12.782 2.847-26.068 4.36-39.709 4.36-30.841 0-59.884-7.687-85.333-21.235m148.521 9.95c-79.889-51.892-128.58-96.023-158.404-134.117 9.27-8.172 18.582-15.946 27.858-23.328 32.291 33.843 96.95 50.887 193.196 50.886 14.254 0 29.215-.379 44.854-1.128-18.336 49.747-57.796 89.266-107.504 107.687"/></svg>

<?xml version="1.0" encoding="utf-8"?>
<!-- Generator: Adobe Illustrator 14.0.0, SVG Export Plug-In . SVG Version: 6.00 Build 43363)  -->
<!DOCTYPE svg PUBLIC "-//W3C//DTD SVG 1.1//EN" "http://www.w3.org/Graphics/SVG/1.1/DTD/svg11.dtd">
<svg version="1.1" xmlns="http://www.w3.org/2000/svg" xmlns:xlink="http://www.w3.org/1999/xlink" x="0px" y="0px" width="512px"
	 height="512px" viewBox="0 0 512 512" enable-background="new 0 0 512 512" xml:space="preserve" fill="#830001">
<g id="Layer_1">
</g>
<g id="amfb">
	<path d="M256,46.082C140.065,46.082,46.082,140.066,46.082,256c0,115.936,93.984,209.918,209.918,209.918
		c115.936,0,209.918-93.982,209.918-209.918C465.918,140.066,371.936,46.082,256,46.082 M432.526,299.873
		c-78.094,4.232-138.946-0.778-180.931-14.908c-20.681-6.958-36.73-16.129-48.027-27.402c35.688-26.975,70.15-48.14,98.58-63.772
		c44.566-24.508,81.514-39.58,99.715-46.43c22.614,30.314,36.004,67.914,36.004,108.64
		C437.867,271.129,436.008,285.821,432.526,299.873 M389.171,132.159c-20.08,7.797-54.405,22.381-95.619,45.017
		c-29.225,16.051-64.673,37.804-101.398,65.578c-2.035-3.564-3.713-7.28-5.019-11.153c-18.998-56.352,40.007-131.917,65.032-157.419
		c1.276-0.026,2.551-0.049,3.833-0.049C308.595,74.133,355.965,96.467,389.171,132.159 M224.599,76.843
		c-31.19,36.979-74.09,104.657-55.186,160.732c1.989,5.901,4.596,11.485,7.81,16.756c-9.167,7.29-18.369,14.958-27.536,23.001
		c-34.489-50.453-36.107-89.812-37.455-122.623c-0.133-3.241-0.265-6.417-0.421-9.544C139,109.851,178.862,84.803,224.599,76.843
		 M111.414,281.46c-13.91-14.104-27.415-22.816-37.249-27.954c0.392-29.168,7.643-56.677,20.225-80.986
		c1.841,28.473,7.134,62.417,31.488,102.633c2.997,4.948,6.242,9.908,9.715,14.882c-3.095,2.866-6.183,5.765-9.258,8.719
		C121.674,292.599,116.699,286.82,111.414,281.46 M112.854,312.084c-7.09,7.211-14.095,14.662-20.973,22.364
		c-8.663-18.091-14.417-37.84-16.67-58.638C86.164,282.98,99.884,294.416,112.854,312.084 M101.448,351.885
		c7.155-8.192,14.459-16.111,21.874-23.751c11.08,19.162,20.746,43.845,26.428,75.473
		C130.472,389.706,114.031,372.121,101.448,351.885 M170.667,416.632c-3.772-29.25-10.929-55.731-21.358-78.873
		c-3.691-8.192-7.793-15.977-12.284-23.324c3.255-3.159,6.524-6.269,9.805-9.325c32.655,41.268,81.802,83.636,148.879,128.397
		c-12.782,2.847-26.068,4.36-39.709,4.36C225.159,437.867,196.116,430.18,170.667,416.632 M319.188,426.582
		c-79.889-51.892-128.58-96.023-158.404-134.117c9.27-8.172,18.582-15.946,27.858-23.328c32.291,33.843,96.95,50.887,193.196,50.886
		c14.254,0,29.215-0.379,44.854-1.128C408.356,368.642,368.896,408.161,319.188,426.582"/>
</g>
</svg>
